X:1
T:McIntyre's Fancy
R:jig
M:6/8
L:1/8
K:Bdor
|:def BAF|ABc ~B2B|fba fed|fBc BAF|
|def edB|~A2F Ade|~f2b afe|1 dBA ~B2c:|2 dBA B3|]
|:~b2a afe|~f2a fed|~B2B ABd|efd efa|
|bfa efd|~B2B AFF|def afe|1 dBA B3:|2 dBA ~B2c|]